X:1
T:yangIn olur biz yangiIna gideriz
O:Turkish
M:9/8
L:1/8
Q:1/4=120
N: b-half-flat 
K:C _b
P:Intro
GA/A/ Ac Bc A2G|A2B2d2c2B|cB BAA2-A3|
P:Verse
|A3ee2(ed c)|d2e2(fg) (ed c)|(cB) (BA)A2-A3| 
A3ee2(ed c)|d2e2(fg) (ed c)|(cB) (BA)A2-A3| 
A3c2(Bc)(A2G)|A2B2d2(c2B)|(cB) (BA) A2-A3|
A3c2(Bc)(A2G)|A2B2d2(c2B)|(cB) (BA) A2-A3|
|A3ee2(ed c)|d2e2(fg) (ed c)|(cB) (BA)A2-A3|
|A3ee2(ed c)|d2e2(fg) (ed c)|(cB) (BA)A2-A3|
|GA Ac (Bc)(A2G)|A2B2d2(c2B)|(cB) (BA) (A2A3)|
A3c (Bc)(A2G)|A2B2d2(c2B)|(cB) (BA) (A2A3)|
|GA Ac (Bc)(A2G)|A2B2d2(c2B)|(cB) (BA) (A2A3)|
A3c (Bc)(A2G)|A2B2d2(c2B)|(cB) (BA) (A2A3)|

$$$

